X: 1
T: Fiddler Gregor
C: Ed Pearlman (1986)
%D:1986
R: reel
Z: 2005 John Chambers <jc:trillian.mit.edu>
M: C|
L: 1/8
K: D
A2 \
| "D"d2fe d2A2 | "D"F2AG "Bm"F2D2 | "G"G2BG "D"F2AF |1 "Em"EDEF "A7"E2 \
                                                   :|2 "A7"EDEF  "D"D2 ||
|: fg \
| "D"a2gf "A7"g2e2 | "Bm"f2ed "A7"c2A2 |1 "G"B2c2 "D"d2A2 | "E7"B2cd "A7"e2 \
                                      :|2 "G"Bcd2 "D"AGF2 | "A7"EDEF  "D"D2 |]
